X: 7
T: La Bastringue
L: 1/8
M: 4/4
K: D
Q: 230
"D"f2ff f2gf | "A"e2 c2 "D" d4 | "A"c2d2 e4 | "D"d2 e2 f4 | 
"D"f2ff f2gf | "A"e2 c2 "D" d4 | "G"g2 f2 "A"e2 d2 | "G"B2 "A"c2 "D"d4 :||
"D"d2 f2 a2 f2 | "C"=c2 e2 g2 e2 |"D"d2 f2 a2 f2 | "G"bgec dcBA |
"D"d2 f2 a2 f2 | "C"=c2 e2 g2 e2 |"D"d2 f2 a2 f2 | "G"bgec d4 :||

